X: 1
T: Miss Barbara Hay's Favorite
C: Robert Mackintosh
N: Robert Mackintosh's birthday seems to be unknown; he died in London in 1807.
N: Chords by John Chambers, modified from Mackintosh's during rehearsals.
R: jig
Z: 2010 John Chambers <jc:trillian.mit.edu>
M: 6/8
L: 1/8
K: G
d \
|: "G"G3 Tgfg | "G"d3 GAB | "Am"Tc2B "A7"A2G | "D7"TFEF D3 \
|  "G"G3 Tgfg | "G"d3 "A7"gab | "D"agf "A7"ed^c | "D"d3 D3 :|
|: "G"B{c}dB gdB | "Am"c2a- acA | "G"B{c}dB "Em"G{A}BG | "C"EFG "D7"AFD \
|  "G"B{c}dB gdB | "Am"c2a- acA | "G"Bcd "D7"cBA | "G"G3- G2 :|
|: d/c/ \
| "G"Bcd "Em"ecB | "Am"ABc "D7"dBA | "G"GAB "Em"EFG | "A7"ABG "D"FED \
| "G"Bgd "Am"ecB | "D7"ABc "G"dBG | "C"EcB "D"AGF | "G"G3- G2 ||
c \
| "G"Bcd "Am"ecB | "D7"ABc "G"dBA | "Em"GAB "A7"EFG | "D"AGF "D7"EFD \
| "G"TGFG "D"AGA | "G"BAB "C"cde | "G"dBG "D7"AFD | "G"G3- G2 :|
%%center Book46/MissBarbaraHaysFavorite_G64-JC.abc

%%sep 1 1 500
%%sep 1 1 500

